X:134
M:3/4
L:1/8
K:G
E2D2E2 | G4A2 | B2A2B2 | d4B2 | A2B2A2 | G4A2 | B6 | B4D2 | 
E2D2E2 | G4A2 | B2A2B2 | d4B2 | A2B2A2 | G4A2 | B6 | B6 | 

